public/icons/weather-icons/Clouds.svg

<svg width="249" height="200" viewBox="0 0 249 200" fill="none" xmlns="http://www.w3.org/2000/svg">
<g filter="url(#filter0_d_1506_810)">
<path d="M160.244 158.694H58.2972C48.4075 158.686 38.9041 154.853 31.7765 147.997C24.6489 141.141 20.4497 131.794 20.058 121.912C19.6663 112.03 23.1125 102.38 29.6751 94.9814C36.2377 87.5828 45.4079 83.0097 55.2659 82.2194C56.6717 72.2927 61.1544 63.0565 68.0832 55.8102C75.012 48.564 84.0383 43.6723 93.8921 41.8235C103.746 39.9747 113.932 41.2618 123.016 45.5037C132.1 49.7455 139.626 56.7287 144.534 65.4707C153.537 62.3543 163.264 61.9901 172.474 64.4246C181.685 66.8591 189.961 71.9819 196.248 79.1397C202.535 86.2974 206.548 95.1656 207.774 104.613C209 114.061 207.384 123.659 203.133 132.185C200.638 139.888 195.767 146.603 189.218 151.365C182.67 156.128 174.781 158.694 166.684 158.694H160.244Z" fill="url(#paint0_linear_1506_810)"/>
<path d="M166.684 158.161C170.796 158.161 174.838 157.504 178.699 156.21C182.433 154.958 185.938 153.131 189.117 150.78C192.26 148.455 195.015 145.671 197.305 142.504C199.624 139.298 201.414 135.771 202.626 132.021L202.639 131.983L202.657 131.946C204.268 128.726 205.509 125.319 206.345 121.82C207.206 118.22 207.642 114.5 207.642 110.764C207.642 107.548 207.318 104.334 206.679 101.211C206.056 98.1683 205.127 95.1752 203.917 92.3151C202.73 89.5067 201.259 86.798 199.547 84.2642C197.852 81.7543 195.905 79.3942 193.76 77.2492C191.615 75.1042 189.254 73.1569 186.745 71.4613C184.211 69.7494 181.502 68.2792 178.694 67.0914C175.834 65.8816 172.84 64.9525 169.798 64.3298C166.675 63.6908 163.461 63.3668 160.245 63.3668C154.92 63.3668 149.692 64.2433 144.709 65.9717L144.288 66.1175L144.07 65.7296C140.014 58.5179 134.115 52.4614 127.009 48.2149C123.416 46.0674 119.555 44.4078 115.535 43.2824C111.387 42.1212 107.078 41.5325 102.729 41.5325C96.8793 41.5325 91.1689 42.5854 85.7566 44.6618C80.5279 46.6678 75.7315 49.5654 71.5004 53.2742C67.2937 56.9617 63.8027 61.3126 61.1243 66.206C58.3801 71.2196 56.5865 76.6315 55.7934 82.2913L55.7341 82.7149L55.3076 82.7483C50.5369 83.1217 45.9469 84.3778 41.6651 86.4815C37.5046 88.5257 33.7894 91.2906 30.6228 94.6994C24.116 101.704 20.5326 110.83 20.5326 120.396C20.5326 125.495 21.531 130.44 23.5001 135.096C24.4465 137.333 25.6179 139.492 26.9819 141.51C28.3329 143.51 29.8845 145.391 31.5936 147.1C33.3026 148.809 35.1832 150.361 37.183 151.712C39.2019 153.075 41.3601 154.247 43.5977 155.193C48.2531 157.162 53.1988 158.161 58.2971 158.161H160.245H166.684ZM166.684 158.693H160.245H58.2971C37.1463 158.693 20 141.547 20 120.396C20 100.265 35.5316 83.7621 55.266 82.2173C58.5303 58.9242 78.5363 41 102.729 41C120.677 41 136.321 50.8645 144.534 65.4686C149.456 63.7616 154.742 62.8343 160.245 62.8343C186.716 62.8343 208.174 84.2933 208.174 110.764C208.174 118.463 206.359 125.739 203.133 132.185C198.162 147.568 183.722 158.693 166.684 158.693Z" fill="white" fill-opacity="0.5"/>
</g>
<defs>
<filter id="filter0_d_1506_810" x="0" y="13" width="248.174" height="177.694" filterUnits="userSpaceOnUse" color-interpolation-filters="sRGB">
<feFlood flood-opacity="0" result="BackgroundImageFix"/>
<feColorMatrix in="SourceAlpha" type="matrix" values="0 0 0 0 0 0 0 0 0 0 0 0 0 0 0 0 0 0 127 0" result="hardAlpha"/>
<feOffset dx="10" dy="2"/>
<feGaussianBlur stdDeviation="15"/>
<feColorMatrix type="matrix" values="0 0 0 0 0 0 0 0 0 0 0 0 0 0 0 0 0 0 0.25 0"/>
<feBlend mode="normal" in2="BackgroundImageFix" result="effect1_dropShadow_1506_810"/>
<feBlend mode="normal" in="SourceGraphic" in2="effect1_dropShadow_1506_810" result="shape"/>
</filter>
<linearGradient id="paint0_linear_1506_810" x1="114.1" y1="41.0014" x2="168.763" y2="173.161" gradientUnits="userSpaceOnUse">
<stop stop-color="white" stop-opacity="0.604"/>
<stop offset="1" stop-color="white" stop-opacity="0.2"/>
</linearGradient>
</defs>
</svg>

<svg xmlns="http://www.w3.org/2000/svg" width="249" height="200" fill="none"><g filter="url(#a)"><path fill="url(#b)" d="M160.244 158.694H58.297a38.3 38.3 0 0 1-28.622-63.713 38.3 38.3 0 0 1 25.59-12.762 47.94 47.94 0 0 1 89.269-16.748 47.953 47.953 0 0 1 58.599 66.714 38.3 38.3 0 0 1-13.915 19.18 38.3 38.3 0 0 1-22.534 7.329z"/><path fill="#fff" fill-opacity=".5" d="M166.684 158.161c4.112 0 8.154-.657 12.015-1.951a37.6 37.6 0 0 0 10.418-5.43 38 38 0 0 0 8.188-8.276 37.6 37.6 0 0 0 5.321-10.483l.013-.038.018-.037a47.2 47.2 0 0 0 3.688-10.126c.861-3.6 1.297-7.32 1.297-11.056 0-3.216-.324-6.43-.963-9.553a47.2 47.2 0 0 0-7.132-16.947 47.7 47.7 0 0 0-12.802-12.803 47.168 47.168 0 0 0-16.947-7.131 47.8 47.8 0 0 0-9.553-.963c-5.325 0-10.553.876-15.536 2.605l-.421.146-.218-.388a47.65 47.65 0 0 0-17.061-17.515 47.15 47.15 0 0 0-24.28-6.683A47.2 47.2 0 0 0 71.5 53.275a47.4 47.4 0 0 0-10.376 12.932 47 47 0 0 0-5.33 16.085l-.06.424-.426.033c-4.771.374-9.361 1.63-13.643 3.733A37.7 37.7 0 0 0 30.623 94.7a37.64 37.64 0 0 0-10.09 25.697 37.5 37.5 0 0 0 2.967 14.7 37.7 37.7 0 0 0 3.482 6.414 38 38 0 0 0 10.201 10.202 38 38 0 0 0 6.415 3.481 37.5 37.5 0 0 0 14.7 2.968h108.386m0 .532H58.297c-21.15 0-38.297-17.146-38.297-38.297 0-20.131 15.532-36.634 35.266-38.179C58.53 58.924 78.536 41 102.729 41c17.948 0 33.592 9.865 41.805 24.469a47.9 47.9 0 0 1 15.711-2.635c26.471 0 47.929 21.46 47.929 47.93a47.7 47.7 0 0 1-5.041 21.421c-4.971 15.383-19.411 26.508-36.449 26.508"/></g><defs><linearGradient id="b" x1="114.1" x2="168.763" y1="41.001" y2="173.161" gradientUnits="userSpaceOnUse"><stop stop-color="#fff" stop-opacity=".604"/><stop offset="1" stop-color="#fff" stop-opacity=".2"/></linearGradient><filter id="a" width="248.174" height="177.694" x="0" y="13" color-interpolation-filters="sRGB" filterUnits="userSpaceOnUse"><feFlood flood-opacity="0" result="BackgroundImageFix"/><feColorMatrix in="SourceAlpha" result="hardAlpha" values="0 0 0 0 0 0 0 0 0 0 0 0 0 0 0 0 0 0 127 0"/><feOffset dx="10" dy="2"/><feGaussianBlur stdDeviation="15"/><feColorMatrix values="0 0 0 0 0 0 0 0 0 0 0 0 0 0 0 0 0 0 0.25 0"/><feBlend in2="BackgroundImageFix" result="effect1_dropShadow_1506_810"/><feBlend in="SourceGraphic" in2="effect1_dropShadow_1506_810" result="shape"/></filter></defs></svg>
